X: 108
T: My Horse Flies like a Bird
C: Teton Sioux band 1911-1914
N: Derived from sioux108.krn
O: South Dakota, U.S.A.
N: Teton Sioux Music by Frances Densmore, 1918
Z: transcribed to **kern format by Craig Sapp
L: 1/8
M: 2/4
Q: 1/4=58
K: F# clef=bass
%%linebreak <none>
F> F F3/ F/ [I:setbarnb 2]| 
E> E (3F E- E ||  
[M:3/4]D2D2D3/ B,/ ||  
[M:2/4]D2D E3// E// ||  
[M:3/4]D2D E D3/ B,/- | 
B,2B,2B,3/ D/ | 
B,6 | 
B,4 ]|:  
F/ D D/ ||  
[M:2/4](F< D) (F/ B,3/) [I:setbarnb 9]||  
[M:3/4]B,2B, C B, G, | 
F,2F,2F,3/ E,/ ||  
[M:2/4]F,2F,3/ F,/ ||  
[M:3/4]=E,2E, F, E, E, | 
=D,2D,2D, B,, ||  
[M:2/4]=D,2=E,3/ E,/ ||  
[M:3/4]=D,2D, =E, D, D, | 
B,,2B,,4 | 
B,,6 | 
B,,4 :|]  



